X:0923
T:Burliegh Park.
M:C
L:1/8
Q:1/2=80
I: :: :|
Z:Jack Campin * www.campin.me.uk * 2009
K:D
a2f2 d2AA|BdcB A2GF|G2GA BAGF|EAAA  A4 |
a2ff d2AA|BdcB AGFG|Addd fedc|d2d>d d4:|
faaa a2gf|edcB A2GF|G2GA BAGF|E2EE  E4 |
faaa a2gf|edcB ABcd|BcdB Adce|d2dd  d4:|

